offer/images/plus.svg

<svg height="17" viewBox="0 0 16 17" width="16" xmlns="http://www.w3.org/2000/svg"><path d="m776.749962 19245.586c0 .2343-.08203.4335-.246093.5976-.164062.1641-.36328.2461-.597655.2461h-4.85155v4.8515c0 .2344-.082031.4336-.246094.5977-.164062.1641-.36328.2461-.597654.2461h-2.671869c-.234375 0-.433593-.082-.597655-.2461s-.246093-.3633-.246093-.5977v-4.8515h-4.851551c-.234375 0-.433593-.082-.597655-.2461s-.246093-.3633-.246093-.5976v-2.6719c0-.2344.082031-.4336.246093-.5977.164062-.164.36328-.2461.597655-.2461h4.851551v-4.8515c0-.2344.082031-.4336.246093-.5977.164062-.164.36328-.2461.597655-.2461h2.671869c.234374 0 .433592.0821.597654.2461.164063.1641.246094.3633.246094.5977v4.8515h4.85155c.234375 0 .433593.0821.597655.2461.164063.1641.246093.3633.246093.5977z" fill="#0c6cd4" fill-rule="evenodd" transform="translate(-761 -19236)"/></svg>

<?xml version="1.0" encoding="UTF-8"?>
<svg width="16px" height="17px" viewBox="0 0 16 17" version="1.1" xmlns="http://www.w3.org/2000/svg" xmlns:xlink="http://www.w3.org/1999/xlink">
    <!-- Generator: Sketch 52.2 (67145) - http://www.bohemiancoding.com/sketch -->
    <title>plus copy 4</title>
    <desc>Created with Sketch.</desc>
    <g id="Page-1" stroke="none" stroke-width="1" fill="none" fill-rule="evenodd">
        <g id="offer" transform="translate(-761.000000, -19236.000000)" fill="#0C6CD4">
            <path d="M776.749962,19245.586 C776.749962,19245.8203 776.667932,19246.0195 776.503869,19246.1836 C776.339807,19246.3477 776.140589,19246.4297 775.906214,19246.4297 L771.054664,19246.4297 L771.054664,19251.2812 C771.054664,19251.5156 770.972633,19251.7148 770.80857,19251.8789 C770.644508,19252.043 770.44529,19252.125 770.210916,19252.125 L767.539047,19252.125 C767.304672,19252.125 767.105454,19252.043 766.941392,19251.8789 C766.77733,19251.7148 766.695299,19251.5156 766.695299,19251.2812 L766.695299,19246.4297 L761.843748,19246.4297 C761.609373,19246.4297 761.410155,19246.3477 761.246093,19246.1836 C761.082031,19246.0195 761,19245.8203 761,19245.586 L761,19242.9141 C761,19242.6797 761.082031,19242.4805 761.246093,19242.3164 C761.410155,19242.1524 761.609373,19242.0703 761.843748,19242.0703 L766.695299,19242.0703 L766.695299,19237.2188 C766.695299,19236.9844 766.77733,19236.7852 766.941392,19236.6211 C767.105454,19236.4571 767.304672,19236.375 767.539047,19236.375 L770.210916,19236.375 C770.44529,19236.375 770.644508,19236.4571 770.80857,19236.6211 C770.972633,19236.7852 771.054664,19236.9844 771.054664,19237.2188 L771.054664,19242.0703 L775.906214,19242.0703 C776.140589,19242.0703 776.339807,19242.1524 776.503869,19242.3164 C776.667932,19242.4805 776.749962,19242.6797 776.749962,19242.9141 L776.749962,19245.586 Z" id="plus-copy-4"></path>
        </g>
    </g>
</svg>
